icon-themes/breeze_svg/cmd/32/dbdistinctvalues.svg

<svg viewBox="0 0 32 32" xmlns="http://www.w3.org/2000/svg"><path d="m6.2929688 3.9960938-1.2929688 1.2929687v2.5390625c.0548.0399 8 10.667969 8 10.667969v5.007812l3 2.25v-1.248047c-.694269-.520856-1.35725-1.01681-2-1.5v-4.841797l-8-10.6679682v-1.7929688l.7070312-.7070312h18.5859378l.707031.7070312v1.7929688l-7.126953 9.5039062h1.248047l6.878906-9.171875v-2.5390625l-1.292969-1.2929687zm.7070312 2 5 6.5000002c-.0153.005 0-3.5000002 0-3.5000002l3-3z" fill="#4d4d4d"/><path d="m25.578125 16.730469-2.080078 3.269531h-6.498047v1h5.861328l-1.910156 3h-3.951172v1h3.316406l-1.738281 2.730469.84375.537109 2.080078-3.267578h6.498047v-1h-5.863281l1.910156-3h3.953125v-1h-3.316406l1.738281-2.732422z" fill="#1d99f3"/></svg>

<svg xmlns="http://www.w3.org/2000/svg" viewBox="0 0 32 32">
 <path 
     style="fill:#4d4d4d" 
     d="M 6.2929688 3.9960938 L 5 5.2890625 L 5 7.828125 C 5.0548 7.868025 13 18.496094 13 18.496094 L 13 23.503906 L 16 25.753906 L 16 24.505859 C 15.305731 23.985003 14.64275 23.489049 14 23.005859 L 14 18.164062 L 6 7.4960938 L 6 5.703125 L 6.7070312 4.9960938 L 25.292969 4.9960938 L 26 5.703125 L 26 7.4960938 L 18.873047 17 L 20.121094 17 L 27 7.828125 L 27 5.2890625 L 25.707031 3.9960938 L 6.2929688 3.9960938 z M 7 5.9960938 L 12 12.496094 C 11.9847 12.501094 12 8.9960938 12 8.9960938 L 15 5.9960938 L 7 5.9960938 z "
     />
 <path 
     style="fill:#1d99f3" 
     d="M 25.578125 16.730469 L 23.498047 20 L 17 20 L 17 21 L 22.861328 21 L 20.951172 24 L 17 24 L 17 25 L 20.316406 25 L 18.578125 27.730469 L 19.421875 28.267578 L 21.501953 25 L 28 25 L 28 24 L 22.136719 24 L 24.046875 21 L 28 21 L 28 20 L 24.683594 20 L 26.421875 17.267578 L 25.578125 16.730469 z "
     />
</svg>
